svgs/sharp-solid/square-m.svg

<svg xmlns="http://www.w3.org/2000/svg" viewBox="0 0 448 512"><!--! Font Awesome Pro 6.6.0 by @fontawesome - https://fontawesome.com License - https://fontawesome.com/license (Commercial License) Copyright 2024 Fonticons, Inc. --><path d="M448 32L0 32 0 480l448 0 0-448zM96 152l0-24 36.3 0 7.2 9.9L224 255l84.5-117.1 7.2-9.9 36.3 0 0 24 0 208 0 24-48 0 0-24 0-133.8-60.5 83.8L224 337l-19.5-26.9L144 226.2 144 360l0 24-48 0 0-24 0-208z"/></svg>

<svg xmlns="http://www.w3.org/2000/svg" viewBox="0 0 448 512"><!--! Font Awesome Pro 6.5.2 by @fontawesome - https://fontawesome.com License - https://fontawesome.com/license (Commercial License) Copyright 2024 Fonticons, Inc. --><path d="M448 32H0V480H448V32zM96 152V128h36.3l7.2 9.9L224 255l84.5-117.1 7.2-9.9H352v24V360v24H304V360 226.2l-60.5 83.8L224 337l-19.5-26.9L144 226.2V360v24H96V360 152z"/></svg>
